X:1
T: Maise an Taobh Tuath
T: The Beauty of the North
C:Captain Simon Fraser
R:Strathspey
M:4/4
K:Eb
Q:128
K:Eb
M:4/4
L:1/16
|:E2|G,E3 E3F G3A Bc3|CC3 F3E DB,3 B,3A,|G,E3 E3F G3A Bg3|f3c edcB e4-e2E2|
G,E3 E3F G3A Bc3|CC3 F3E DB,3 B,3A,|G,E3 E3F G3A Bg3|f3c edcB e4e2g2|
e3g Bg3 eg3 b3g|a3g f3e dB3 B3g|e3g B3g efga b3g|a3f edcB e4-e3f|
ge3 BG3 eB3 GE3|A3G F3E DB,3 B,3A,|G,E3 EA3 Ge3 Bg3|f3d edcB e4-e2:|
